X: 37021
T: Miss Erskine of Torry
O: Glen Collection
B: RSCDS 37-2
R: strathspey
Z: 1999 John Chambers <jc:trillian.mit.edu>
M: C
L: 1/8
%--------------------
K: Am
|: B \
| "Am"c<A A>B c<A A>c | "G"B<d d>c BG GB \
| "Am"c>A "E7"d>B "Am"e>c "Dm"d>B | "E7"e/d/c/B/ e>B "Am"cA A :|
^g \
| "Am"a>e e>d c>A A>c | "G"B>g dg BG G^g \
| "Am"a>e e>d c>A "(E)"a>g | "Dm"f/e/d/c/ "E7"B/c/d/B/ "Am"cA A^g |
| "Am"a>e e>d c>A A>c | "G"B>g dg BG GB \
| "Am"(3ABc "E7"(3Bcd "Am"(3cde "Dm"(3def | "E7"e>a ^g>b "Am"aA A |]
%%center Book37/37021-Miss_Erskine_of_Torry-1.abc

%%sep 1 1 500
%%sep 1 1 500

